src/assets/windows.svg

<!DOCTYPE svg PUBLIC "-//W3C//DTD SVG 1.1//EN" "http://www.w3.org/Graphics/SVG/1.1/DTD/svg11.dtd">
<!-- Uploaded to: SVG Repo, www.svgrepo.com, Transformed by: SVG Repo Mixer Tools -->
<svg fill="#eeff00" height="800px" width="800px" version="1.1" id="Capa_1" xmlns="http://www.w3.org/2000/svg" xmlns:xlink="http://www.w3.org/1999/xlink" viewBox="0 0 463 463" xml:space="preserve">
<g id="SVGRepo_bgCarrier" stroke-width="0"/>
<g id="SVGRepo_tracerCarrier" stroke-linecap="round" stroke-linejoin="round"/>
<g id="SVGRepo_iconCarrier"> <g> <path d="M175.5,0h-136C17.72,0,0,17.72,0,39.5v136C0,197.28,17.72,215,39.5,215h136c21.78,0,39.5-17.72,39.5-39.5v-136 C215,17.72,197.28,0,175.5,0z M200,175.5c0,13.509-10.991,24.5-24.5,24.5h-136C25.991,200,15,189.009,15,175.5v-136 C15,25.991,25.991,15,39.5,15h136c13.509,0,24.5,10.991,24.5,24.5V175.5z"/> <path d="M423.5,0h-136C265.72,0,248,17.72,248,39.5v136c0,21.78,17.72,39.5,39.5,39.5h136c21.78,0,39.5-17.72,39.5-39.5v-136 C463,17.72,445.28,0,423.5,0z M448,175.5c0,13.509-10.991,24.5-24.5,24.5h-136c-13.509,0-24.5-10.991-24.5-24.5v-136 c0-13.509,10.991-24.5,24.5-24.5h136c13.509,0,24.5,10.991,24.5,24.5V175.5z"/> <path d="M175.5,248h-136C17.72,248,0,265.72,0,287.5v136C0,445.28,17.72,463,39.5,463h136c21.78,0,39.5-17.72,39.5-39.5v-136 C215,265.72,197.28,248,175.5,248z M200,423.5c0,13.509-10.991,24.5-24.5,24.5h-136C25.991,448,15,437.009,15,423.5v-136 c0-13.509,10.991-24.5,24.5-24.5h136c13.509,0,24.5,10.991,24.5,24.5V423.5z"/> <path d="M423.5,248h-136c-21.78,0-39.5,17.72-39.5,39.5v136c0,21.78,17.72,39.5,39.5,39.5h136c21.78,0,39.5-17.72,39.5-39.5v-136 C463,265.72,445.28,248,423.5,248z M448,423.5c0,13.509-10.991,24.5-24.5,24.5h-136c-13.509,0-24.5-10.991-24.5-24.5v-136 c0-13.509,10.991-24.5,24.5-24.5h136c13.509,0,24.5,10.991,24.5,24.5V423.5z"/> </g> </g>
</svg>

<svg id="SVGRepo_iconCarrier" xmlns="http://www.w3.org/2000/svg" width="463" height="463" viewBox="0 0 463 463">
  <g id="Group_2" data-name="Group 2">
    <path id="Path_16" data-name="Path 16" d="M175.5,0H39.5A39.545,39.545,0,0,0,0,39.5v136A39.545,39.545,0,0,0,39.5,215h136A39.545,39.545,0,0,0,215,175.5V39.5A39.545,39.545,0,0,0,175.5,0ZM200,175.5A24.528,24.528,0,0,1,175.5,200H39.5A24.528,24.528,0,0,1,15,175.5V39.5A24.528,24.528,0,0,1,39.5,15h136A24.528,24.528,0,0,1,200,39.5Z" fill="#ef0"/>
    <path id="Path_17" data-name="Path 17" d="M423.5,0h-136A39.545,39.545,0,0,0,248,39.5v136A39.545,39.545,0,0,0,287.5,215h136A39.545,39.545,0,0,0,463,175.5V39.5A39.545,39.545,0,0,0,423.5,0ZM448,175.5A24.528,24.528,0,0,1,423.5,200h-136A24.528,24.528,0,0,1,263,175.5V39.5A24.528,24.528,0,0,1,287.5,15h136A24.528,24.528,0,0,1,448,39.5Z" fill="#ef0"/>
    <path id="Path_18" data-name="Path 18" d="M175.5,248H39.5A39.545,39.545,0,0,0,0,287.5v136A39.545,39.545,0,0,0,39.5,463h136A39.545,39.545,0,0,0,215,423.5v-136A39.545,39.545,0,0,0,175.5,248ZM200,423.5A24.528,24.528,0,0,1,175.5,448H39.5A24.528,24.528,0,0,1,15,423.5v-136A24.528,24.528,0,0,1,39.5,263h136A24.528,24.528,0,0,1,200,287.5Z" fill="#ef0"/>
    <path id="Path_19" data-name="Path 19" d="M423.5,248h-136A39.545,39.545,0,0,0,248,287.5v136A39.545,39.545,0,0,0,287.5,463h136A39.545,39.545,0,0,0,463,423.5v-136A39.545,39.545,0,0,0,423.5,248ZM448,423.5A24.528,24.528,0,0,1,423.5,448h-136A24.528,24.528,0,0,1,263,423.5v-136A24.528,24.528,0,0,1,287.5,263h136A24.528,24.528,0,0,1,448,287.5Z" fill="#ef0"/>
  </g>
</svg>
